src/blocks/responsive-br/icon.svg

<svg viewBox="0 0 24 24" fill="none" xmlns="http://www.w3.org/2000/svg">
<path d="M20 2V9.58856L6.77875 9.58883L9.98777 12.7979L9.50447 13.2812L8.61821 13.2832C8.69174 12.4565 8.12589 11.5 7.02159 11.5L6.63843 11.5015L4 8.86304L8.96129 3.90173L9.98777 4.92821L6.77881 8.13718L18.5 8.13704L18.5 2H20Z"/>
<path d="M10.8895 14.778L7.62346 14.7856C7.57942 14.7856 7.53538 14.8159 7.5207 14.8615L7.27116 15.5833C7.24915 15.6593 7.30052 15.7353 7.37392 15.7353H8.64364C8.73905 15.7353 8.79043 15.8569 8.72437 15.9253L6.69869 18.1059H6.70603L7.74823 21.5022C7.77025 21.5782 7.71887 21.6465 7.64548 21.6465H6.62529C6.57392 21.6465 6.53722 21.6162 6.52254 21.5706L6.00144 19.8306C5.97208 19.7242 5.83264 19.7242 5.79594 19.823L5.37025 21.0463C5.36291 21.0691 5.36291 21.0919 5.37025 21.1147L5.75924 22.5963C5.77392 22.6419 5.81796 22.6799 5.86199 22.6799H9.15006C9.22345 22.6799 9.27483 22.6039 9.25281 22.5355L7.92437 18.2578C7.90969 18.2198 7.92437 18.1743 7.95373 18.1439L10.9702 14.9679C11.0363 14.8995 10.9849 14.778 10.8895 14.778Z" />
<path d="M7.02164 13L5.03265 13.0076C4.98862 13.0076 4.94458 13.038 4.9299 13.0836L4.67302 13.8054C4.64366 13.8814 4.70238 13.9573 4.77577 13.9573H5.61247C5.68586 13.9573 5.73724 14.0333 5.71522 14.1093L3.34458 20.8259C3.30789 20.9247 3.17578 20.9247 3.13908 20.8259L1.43633 15.9784C1.40697 15.9024 1.46569 15.8265 1.53908 15.8265H2.3978C2.44183 15.8265 2.48587 15.8568 2.50055 15.9024L3.11706 17.65C3.15376 17.7487 3.28587 17.7487 3.32257 17.65L4.27669 14.9299C4.30605 14.8539 4.24733 14.7779 4.17394 14.7779H0.107895C0.0345005 14.7779 -0.0168755 14.8539 0.0051428 14.9299L3.13174 23.9259C3.16844 24.0247 3.30055 24.0247 3.33724 23.9259L7.12439 13.152C7.14641 13.076 7.09503 13 7.02164 13Z" fill="#D8141C"/>
</svg>

<svg width="24" height="24" fill="none" xmlns="http://www.w3.org/2000/svg"><path d="M20 2v7.59H6.78l3.2 3.2-.48.5h-.88c.07-.83-.5-1.79-1.6-1.79h-.38L4 8.86 8.96 3.9 10 4.93l-3.21 3.2H18.5V2H20zM10.89 14.78H7.62a.11.11 0 00-.1.08l-.25.72c-.02.08.03.16.1.16h1.27c.1 0 .15.12.08.19L6.7 18.1l1.05 3.4c.02.07-.03.14-.1.14H6.63a.1.1 0 01-.1-.08L6 19.83c-.03-.1-.17-.1-.2 0l-.43 1.22a.1.1 0 000 .06l.39 1.49c.01.04.06.08.1.08h3.29c.07 0 .12-.08.1-.14l-1.33-4.28c-.01-.04 0-.09.03-.12l3.02-3.17c.07-.07.01-.2-.08-.2z" fill="#000"/><path d="M7.02 13H5.03a.11.11 0 00-.1.08l-.26.73c-.03.07.03.15.1.15h.84c.08 0 .13.07.1.15l-2.37 6.72a.1.1 0 01-.2 0l-1.7-4.85a.11.11 0 01.1-.15h.86c.04 0 .09.03.1.07l.62 1.75c.03.1.17.1.2 0l.96-2.72a.11.11 0 00-.1-.15H.1c-.08 0-.13.07-.1.15l3.12 9c.04.1.17.1.2 0l3.8-10.78c.02-.07-.03-.15-.1-.15z" fill="#D8141C"/></svg>
